colormatch/acceptance-photos/xmp/T6-02_夜景冷调.xmp
<x:xmpmeta xmlns:x="adobe:ns:meta/" x:xmptk="ColorMatch">
 <rdf:RDF xmlns:rdf="http://www.w3.org/1999/02/22-rdf-syntax-ns#">
  <rdf:Description rdf:about=""
    xmlns:crs="http://ns.adobe.com/camera-raw-settings/1.0/"
    crs:Version="15.4"
    crs:ProcessVersion="11.0"
    crs:PresetType="Normal"
    crs:Cluster="ColorMatch"
    crs:UUID="C01AC7E0000040008000000000000002"
    crs:SupportsAmount="False"
    crs:SupportsColor="True"
    crs:SupportsMonochrome="False"
    crs:SupportsHighDynamicRange="True"
    crs:SupportsSceneReferred="True"
    crs:WhiteBalance="Custom"
    crs:IncrementalTemperature="40"
    crs:IncrementalTint="-14"
    crs:Exposure2012="-1.50"
    crs:Contrast2012="-50"
    crs:Highlights2012="-60"
    crs:Shadows2012="-45"
    crs:Whites2012="+40"
    crs:Blacks2012="-40"
    crs:Vibrance="-40"
    crs:Saturation="-39"
    crs:HueAdjustmentRed="-9"
    crs:HueAdjustmentOrange="-5"
    crs:HueAdjustmentYellow="+15"
    crs:HueAdjustmentGreen="0"
    crs:HueAdjustmentAqua="-15"
    crs:HueAdjustmentBlue="+15"
    crs:HueAdjustmentPurple="0"
    crs:HueAdjustmentMagenta="0"
    crs:SaturationAdjustmentRed="+23"
    crs:SaturationAdjustmentOrange="+2"
    crs:SaturationAdjustmentYellow="-22"
    crs:SaturationAdjustmentGreen="0"
    crs:SaturationAdjustmentAqua="-16"
    crs:SaturationAdjustmentBlue="-24"
    crs:SaturationAdjustmentPurple="0"
    crs:SaturationAdjustmentMagenta="0"
    crs:LuminanceAdjustmentRed="-19"
    crs:LuminanceAdjustmentOrange="-35"
    crs:LuminanceAdjustmentYellow="-35"
    crs:LuminanceAdjustmentGreen="0"
    crs:LuminanceAdjustmentAqua="-35"
    crs:LuminanceAdjustmentBlue="-35"
    crs:LuminanceAdjustmentPurple="0"
    crs:LuminanceAdjustmentMagenta="0"
    crs:SplitToningShadowHue="0"
    crs:SplitToningShadowSaturation="0"
    crs:SplitToningHighlightHue="263"
    crs:SplitToningHighlightSaturation="50"
    crs:SplitToningBalance="0"
    crs:ColorGradeShadowLum="0"
    crs:ColorGradeMidtoneHue="0"
    crs:ColorGradeMidtoneSat="0"
    crs:ColorGradeMidtoneLum="0"
    crs:ColorGradeHighlightLum="0"
    crs:ColorGradeBlending="50"
    crs:ColorGradeGlobalHue="0"
    crs:ColorGradeGlobalSat="0"
    crs:ColorGradeGlobalLum="0"
    crs:HasSettings="True">
   <crs:Name>
    <rdf:Alt>
     <rdf:li xml:lang="x-default">T6-02 夜景冷调</rdf:li>
    </rdf:Alt>
   </crs:Name>
   <crs:Group>
    <rdf:Alt>
     <rdf:li xml:lang="x-default">ColorMatch</rdf:li>
    </rdf:Alt>
   </crs:Group>
      <crs:ToneCurvePV2012>
       <rdf:Seq>
        <rdf:li>0, 0</rdf:li>
        <rdf:li>255, 255</rdf:li>
       </rdf:Seq>
      </crs:ToneCurvePV2012>
  </rdf:Description>
 </rdf:RDF>
</x:xmpmeta>