colormatch/acceptance-photos/xmp/T6-07_室内暖光.xmp
<x:xmpmeta xmlns:x="adobe:ns:meta/" x:xmptk="ColorMatch">
 <rdf:RDF xmlns:rdf="http://www.w3.org/1999/02/22-rdf-syntax-ns#">
  <rdf:Description rdf:about=""
    xmlns:crs="http://ns.adobe.com/camera-raw-settings/1.0/"
    crs:Version="15.4"
    crs:ProcessVersion="11.0"
    crs:PresetType="Normal"
    crs:Cluster="ColorMatch"
    crs:UUID="C01AC7E0000040008000000000000007"
    crs:SupportsAmount="False"
    crs:SupportsColor="True"
    crs:SupportsMonochrome="False"
    crs:SupportsHighDynamicRange="True"
    crs:SupportsSceneReferred="True"
    crs:WhiteBalance="Custom"
    crs:IncrementalTemperature="-28"
    crs:IncrementalTint="-24"
    crs:Exposure2012="-1.00"
    crs:Contrast2012="+50"
    crs:Highlights2012="+60"
    crs:Shadows2012="+13"
    crs:Whites2012="+40"
    crs:Blacks2012="+11"
    crs:Vibrance="-34"
    crs:Saturation="-6"
    crs:HueAdjustmentRed="+4"
    crs:HueAdjustmentOrange="+5"
    crs:HueAdjustmentYellow="+2"
    crs:HueAdjustmentGreen="0"
    crs:HueAdjustmentAqua="0"
    crs:HueAdjustmentBlue="-1"
    crs:HueAdjustmentPurple="0"
    crs:HueAdjustmentMagenta="0"
    crs:SaturationAdjustmentRed="-35"
    crs:SaturationAdjustmentOrange="-8"
    crs:SaturationAdjustmentYellow="-5"
    crs:SaturationAdjustmentGreen="0"
    crs:SaturationAdjustmentAqua="0"
    crs:SaturationAdjustmentBlue="0"
    crs:SaturationAdjustmentPurple="0"
    crs:SaturationAdjustmentMagenta="0"
    crs:LuminanceAdjustmentRed="+35"
    crs:LuminanceAdjustmentOrange="+29"
    crs:LuminanceAdjustmentYellow="+22"
    crs:LuminanceAdjustmentGreen="0"
    crs:LuminanceAdjustmentAqua="0"
    crs:LuminanceAdjustmentBlue="+3"
    crs:LuminanceAdjustmentPurple="0"
    crs:LuminanceAdjustmentMagenta="0"
    crs:SplitToningShadowHue="334"
    crs:SplitToningShadowSaturation="8"
    crs:SplitToningHighlightHue="29"
    crs:SplitToningHighlightSaturation="20"
    crs:SplitToningBalance="0"
    crs:ColorGradeShadowLum="0"
    crs:ColorGradeMidtoneHue="0"
    crs:ColorGradeMidtoneSat="0"
    crs:ColorGradeMidtoneLum="0"
    crs:ColorGradeHighlightLum="0"
    crs:ColorGradeBlending="50"
    crs:ColorGradeGlobalHue="0"
    crs:ColorGradeGlobalSat="0"
    crs:ColorGradeGlobalLum="0"
    crs:HasSettings="True">
   <crs:Name>
    <rdf:Alt>
     <rdf:li xml:lang="x-default">T6-07 室内暖光</rdf:li>
    </rdf:Alt>
   </crs:Name>
   <crs:Group>
    <rdf:Alt>
     <rdf:li xml:lang="x-default">ColorMatch</rdf:li>
    </rdf:Alt>
   </crs:Group>
      <crs:ToneCurvePV2012>
       <rdf:Seq>
        <rdf:li>0, 0</rdf:li>
        <rdf:li>255, 255</rdf:li>
       </rdf:Seq>
      </crs:ToneCurvePV2012>
  </rdf:Description>
 </rdf:RDF>
</x:xmpmeta>