colormatch/acceptance-photos/xmp/T6-06_海景.xmp
<x:xmpmeta xmlns:x="adobe:ns:meta/" x:xmptk="ColorMatch">
 <rdf:RDF xmlns:rdf="http://www.w3.org/1999/02/22-rdf-syntax-ns#">
  <rdf:Description rdf:about=""
    xmlns:crs="http://ns.adobe.com/camera-raw-settings/1.0/"
    crs:Version="15.4"
    crs:ProcessVersion="11.0"
    crs:PresetType="Normal"
    crs:Cluster="ColorMatch"
    crs:UUID="C01AC7E0000040008000000000000006"
    crs:SupportsAmount="False"
    crs:SupportsColor="True"
    crs:SupportsMonochrome="False"
    crs:SupportsHighDynamicRange="True"
    crs:SupportsSceneReferred="True"
    crs:WhiteBalance="Custom"
    crs:IncrementalTemperature="2"
    crs:IncrementalTint="-10"
    crs:Exposure2012="+0.38"
    crs:Contrast2012="+50"
    crs:Highlights2012="+60"
    crs:Shadows2012="+15"
    crs:Whites2012="+40"
    crs:Blacks2012="+10"
    crs:Vibrance="+36"
    crs:Saturation="+6"
    crs:HueAdjustmentRed="0"
    crs:HueAdjustmentOrange="+3"
    crs:HueAdjustmentYellow="+15"
    crs:HueAdjustmentGreen="-15"
    crs:HueAdjustmentAqua="+15"
    crs:HueAdjustmentBlue="+5"
    crs:HueAdjustmentPurple="0"
    crs:HueAdjustmentMagenta="0"
    crs:SaturationAdjustmentRed="0"
    crs:SaturationAdjustmentOrange="-12"
    crs:SaturationAdjustmentYellow="-14"
    crs:SaturationAdjustmentGreen="+12"
    crs:SaturationAdjustmentAqua="+35"
    crs:SaturationAdjustmentBlue="-35"
    crs:SaturationAdjustmentPurple="0"
    crs:SaturationAdjustmentMagenta="0"
    crs:LuminanceAdjustmentRed="0"
    crs:LuminanceAdjustmentOrange="+35"
    crs:LuminanceAdjustmentYellow="+35"
    crs:LuminanceAdjustmentGreen="+8"
    crs:LuminanceAdjustmentAqua="+35"
    crs:LuminanceAdjustmentBlue="+8"
    crs:LuminanceAdjustmentPurple="0"
    crs:LuminanceAdjustmentMagenta="0"
    crs:SplitToningShadowHue="267"
    crs:SplitToningShadowSaturation="12"
    crs:SplitToningHighlightHue="245"
    crs:SplitToningHighlightSaturation="18"
    crs:SplitToningBalance="0"
    crs:ColorGradeShadowLum="0"
    crs:ColorGradeMidtoneHue="0"
    crs:ColorGradeMidtoneSat="0"
    crs:ColorGradeMidtoneLum="0"
    crs:ColorGradeHighlightLum="0"
    crs:ColorGradeBlending="50"
    crs:ColorGradeGlobalHue="0"
    crs:ColorGradeGlobalSat="0"
    crs:ColorGradeGlobalLum="0"
    crs:HasSettings="True">
   <crs:Name>
    <rdf:Alt>
     <rdf:li xml:lang="x-default">T6-06 海景</rdf:li>
    </rdf:Alt>
   </crs:Name>
   <crs:Group>
    <rdf:Alt>
     <rdf:li xml:lang="x-default">ColorMatch</rdf:li>
    </rdf:Alt>
   </crs:Group>
      <crs:ToneCurvePV2012>
       <rdf:Seq>
        <rdf:li>0, 0</rdf:li>
        <rdf:li>255, 255</rdf:li>
       </rdf:Seq>
      </crs:ToneCurvePV2012>
  </rdf:Description>
 </rdf:RDF>
</x:xmpmeta>