colormatch/acceptance-photos/xmp/T6-03_红色大色偏.xmp
<x:xmpmeta xmlns:x="adobe:ns:meta/" x:xmptk="ColorMatch">
 <rdf:RDF xmlns:rdf="http://www.w3.org/1999/02/22-rdf-syntax-ns#">
  <rdf:Description rdf:about=""
    xmlns:crs="http://ns.adobe.com/camera-raw-settings/1.0/"
    crs:Version="15.4"
    crs:ProcessVersion="11.0"
    crs:PresetType="Normal"
    crs:Cluster="ColorMatch"
    crs:UUID="C01AC7E0000040008000000000000003"
    crs:SupportsAmount="False"
    crs:SupportsColor="True"
    crs:SupportsMonochrome="False"
    crs:SupportsHighDynamicRange="True"
    crs:SupportsSceneReferred="True"
    crs:WhiteBalance="Custom"
    crs:IncrementalTemperature="40"
    crs:IncrementalTint="40"
    crs:Exposure2012="+1.50"
    crs:Contrast2012="+38"
    crs:Highlights2012="-60"
    crs:Shadows2012="-2"
    crs:Whites2012="-40"
    crs:Blacks2012="-2"
    crs:Vibrance="+40"
    crs:Saturation="+18"
    crs:HueAdjustmentRed="-8"
    crs:HueAdjustmentOrange="-5"
    crs:HueAdjustmentYellow="+10"
    crs:HueAdjustmentGreen="0"
    crs:HueAdjustmentAqua="-10"
    crs:HueAdjustmentBlue="+6"
    crs:HueAdjustmentPurple="0"
    crs:HueAdjustmentMagenta="+12"
    crs:SaturationAdjustmentRed="+35"
    crs:SaturationAdjustmentOrange="-2"
    crs:SaturationAdjustmentYellow="-32"
    crs:SaturationAdjustmentGreen="0"
    crs:SaturationAdjustmentAqua="-35"
    crs:SaturationAdjustmentBlue="-35"
    crs:SaturationAdjustmentPurple="0"
    crs:SaturationAdjustmentMagenta="+11"
    crs:LuminanceAdjustmentRed="-13"
    crs:LuminanceAdjustmentOrange="-10"
    crs:LuminanceAdjustmentYellow="-35"
    crs:LuminanceAdjustmentGreen="0"
    crs:LuminanceAdjustmentAqua="+35"
    crs:LuminanceAdjustmentBlue="+23"
    crs:LuminanceAdjustmentPurple="0"
    crs:LuminanceAdjustmentMagenta="-35"
    crs:SplitToningShadowHue="201"
    crs:SplitToningShadowSaturation="50"
    crs:SplitToningHighlightHue="160"
    crs:SplitToningHighlightSaturation="43"
    crs:SplitToningBalance="0"
    crs:ColorGradeShadowLum="0"
    crs:ColorGradeMidtoneHue="0"
    crs:ColorGradeMidtoneSat="0"
    crs:ColorGradeMidtoneLum="0"
    crs:ColorGradeHighlightLum="0"
    crs:ColorGradeBlending="50"
    crs:ColorGradeGlobalHue="0"
    crs:ColorGradeGlobalSat="0"
    crs:ColorGradeGlobalLum="0"
    crs:HasSettings="True">
   <crs:Name>
    <rdf:Alt>
     <rdf:li xml:lang="x-default">T6-03 红色大色偏</rdf:li>
    </rdf:Alt>
   </crs:Name>
   <crs:Group>
    <rdf:Alt>
     <rdf:li xml:lang="x-default">ColorMatch</rdf:li>
    </rdf:Alt>
   </crs:Group>
      <crs:ToneCurvePV2012>
       <rdf:Seq>
        <rdf:li>0, 0</rdf:li>
        <rdf:li>255, 255</rdf:li>
       </rdf:Seq>
      </crs:ToneCurvePV2012>
  </rdf:Description>
 </rdf:RDF>
</x:xmpmeta>