colormatch/acceptance-photos/xmp/T6-04_绿色站台.xmp
<x:xmpmeta xmlns:x="adobe:ns:meta/" x:xmptk="ColorMatch">
 <rdf:RDF xmlns:rdf="http://www.w3.org/1999/02/22-rdf-syntax-ns#">
  <rdf:Description rdf:about=""
    xmlns:crs="http://ns.adobe.com/camera-raw-settings/1.0/"
    crs:Version="15.4"
    crs:ProcessVersion="11.0"
    crs:PresetType="Normal"
    crs:Cluster="ColorMatch"
    crs:UUID="C01AC7E0000040008000000000000004"
    crs:SupportsAmount="False"
    crs:SupportsColor="True"
    crs:SupportsMonochrome="False"
    crs:SupportsHighDynamicRange="True"
    crs:SupportsSceneReferred="True"
    crs:WhiteBalance="Custom"
    crs:IncrementalTemperature="-8"
    crs:IncrementalTint="3"
    crs:Exposure2012="+1.42"
    crs:Contrast2012="+47"
    crs:Highlights2012="+60"
    crs:Shadows2012="+4"
    crs:Whites2012="+40"
    crs:Blacks2012="+4"
    crs:Vibrance="+3"
    crs:Saturation="+1"
    crs:HueAdjustmentRed="-15"
    crs:HueAdjustmentOrange="0"
    crs:HueAdjustmentYellow="+15"
    crs:HueAdjustmentGreen="-15"
    crs:HueAdjustmentAqua="+15"
    crs:HueAdjustmentBlue="-1"
    crs:HueAdjustmentPurple="0"
    crs:HueAdjustmentMagenta="0"
    crs:SaturationAdjustmentRed="-24"
    crs:SaturationAdjustmentOrange="0"
    crs:SaturationAdjustmentYellow="+15"
    crs:SaturationAdjustmentGreen="+5"
    crs:SaturationAdjustmentAqua="+3"
    crs:SaturationAdjustmentBlue="-35"
    crs:SaturationAdjustmentPurple="0"
    crs:SaturationAdjustmentMagenta="0"
    crs:LuminanceAdjustmentRed="+35"
    crs:LuminanceAdjustmentOrange="0"
    crs:LuminanceAdjustmentYellow="+11"
    crs:LuminanceAdjustmentGreen="+20"
    crs:LuminanceAdjustmentAqua="+35"
    crs:LuminanceAdjustmentBlue="+8"
    crs:LuminanceAdjustmentPurple="0"
    crs:LuminanceAdjustmentMagenta="0"
    crs:SplitToningShadowHue="263"
    crs:SplitToningShadowSaturation="3"
    crs:SplitToningHighlightHue="283"
    crs:SplitToningHighlightSaturation="8"
    crs:SplitToningBalance="0"
    crs:ColorGradeShadowLum="0"
    crs:ColorGradeMidtoneHue="0"
    crs:ColorGradeMidtoneSat="0"
    crs:ColorGradeMidtoneLum="0"
    crs:ColorGradeHighlightLum="0"
    crs:ColorGradeBlending="50"
    crs:ColorGradeGlobalHue="0"
    crs:ColorGradeGlobalSat="0"
    crs:ColorGradeGlobalLum="0"
    crs:HasSettings="True">
   <crs:Name>
    <rdf:Alt>
     <rdf:li xml:lang="x-default">T6-04 绿色站台</rdf:li>
    </rdf:Alt>
   </crs:Name>
   <crs:Group>
    <rdf:Alt>
     <rdf:li xml:lang="x-default">ColorMatch</rdf:li>
    </rdf:Alt>
   </crs:Group>
      <crs:ToneCurvePV2012>
       <rdf:Seq>
        <rdf:li>0, 0</rdf:li>
        <rdf:li>255, 255</rdf:li>
       </rdf:Seq>
      </crs:ToneCurvePV2012>
  </rdf:Description>
 </rdf:RDF>
</x:xmpmeta>